src/components/Icon/assets/weather-cloudy.svg

<svg width="24" height="24" viewBox="0 0 24 24" fill="none" xmlns="http://www.w3.org/2000/svg">
<path fill-rule="evenodd" clip-rule="evenodd" d="M11 4.953H9V2.453H11V4.953ZM6.46452 6.00297L4.70752 4.24597L3.29352 5.65997L5.05052 7.41697L6.46452 6.00297ZM1.5 11.953H4V9.953H1.5V11.953ZM16.7072 5.66022L15.2932 4.24622L13.5362 6.00322L14.9502 7.41722L16.7072 5.66022ZM8.21569 19.0001H16.9367C18.6257 19.0001 19.9997 17.6251 19.9997 15.9361C19.9997 14.2461 18.6257 12.8721 16.9367 12.8721H15.8637L15.5737 12.3771C15.0347 11.4561 14.0867 10.9061 13.0397 10.9061C11.5917 10.9061 10.3437 11.9931 10.1357 13.4351L10.0127 14.2921H8.21569C6.99369 14.2921 5.99969 15.2861 5.99969 16.5081V16.7841C5.99969 18.0061 6.99369 19.0001 8.21569 19.0001ZM9.99969 8.45312C8.62169 8.45312 7.49969 9.57413 7.49969 10.9531C7.49969 11.4441 7.64469 11.9151 7.91369 12.3221C7.95563 12.3192 7.99655 12.3137 8.03743 12.3081C8.09598 12.3001 8.15445 12.2921 8.21569 12.2921H8.35969C8.8777 10.7461 10.1387 9.56213 11.6827 9.11112C11.2257 8.69513 10.6297 8.45312 9.99969 8.45312ZM14.1507 9.03713C15.2637 9.30013 16.2667 9.94613 16.9687 10.8721C19.7467 10.8901 21.9997 13.1541 21.9997 15.9361C21.9997 18.7291 19.7287 21.0001 16.9367 21.0001H8.21569C5.8917 21.0001 3.99969 19.1081 3.99969 16.7841V16.5081C3.99969 15.0111 4.79069 13.7011 5.9697 12.9531C5.66269 12.3351 5.49969 11.6541 5.49969 10.9531C5.49969 8.47213 7.51869 6.45312 9.99969 6.45312C11.4707 6.45312 12.8507 7.17412 13.6927 8.38112L14.1507 9.03713Z" fill="#65676A"/>
</svg>

<svg xmlns="http://www.w3.org/2000/svg" width="24" height="24" viewBox="0 0 24 24">
    <path fill="#65676A" fill-rule="evenodd" d="M10 6.453c1.47 0 2.85.721 3.693 1.928l.458.656c1.113.263 2.116.91 2.818 1.835 2.778.018 5.03 2.282 5.03 5.064C22 18.73 19.73 21 16.938 21H8.216C5.892 21 4 19.108 4 16.784v-.276c0-1.497.79-2.807 1.97-3.555-.307-.618-.47-1.299-.47-2 0-2.48 2.019-4.5 4.5-4.5zm3.04 4.453c-1.448 0-2.696 1.087-2.904 2.53l-.123.856H8.216c-1.222 0-2.216.994-2.216 2.216v.276C6 18.006 6.994 19 8.216 19h8.72C18.627 19 20 17.625 20 15.936c0-1.69-1.374-3.064-3.063-3.064h-1.073l-.29-.495c-.54-.92-1.487-1.47-2.534-1.47zM10 8.453c-1.378 0-2.5 1.121-2.5 2.5 0 .491.145.962.414 1.37.102-.008.198-.03.302-.03h.144c.518-1.547 1.779-2.73 3.323-3.182-.457-.416-1.053-.658-1.683-.658zm-6 1.5v2H1.5v-2H4zm11.293-5.707l1.414 1.414-1.757 1.757-1.414-1.414 1.757-1.757zm-10.585 0l1.756 1.757-1.413 1.414L3.293 5.66l1.414-1.414zM11 2.453v2.5H9v-2.5h2z"/>
</svg>
